packages/ckeditor5-icons/theme/icons/ai-review.svg

<svg viewBox="0 0 20 20" xmlns="http://www.w3.org/2000/svg">
<path d="M14.269 9.14136L6.07568 17.3347H3.29736V14.5593L11.4897 6.36109L14.269 9.14136Z"/>
<path d="M14.1616 3.99976C14.2585 3.9998 14.3544 4.01915 14.4438 4.0564C14.5334 4.09374 14.6148 4.14861 14.6831 4.21754L16.4175 5.94703C16.4864 6.01532 16.5413 6.09675 16.5786 6.18629C16.616 6.27588 16.6353 6.37242 16.6353 6.46949C16.6352 6.56635 16.6158 6.66229 16.5786 6.75172C16.5413 6.84121 16.4863 6.92269 16.4175 6.99097L15.062 8.34937L12.2827 5.5691L13.6392 4.21754C13.7074 4.14865 13.7889 4.09374 13.8784 4.0564C13.968 4.01906 14.0646 3.99976 14.1616 3.99976Z"/>
<path d="M3.74951 0L4.44129 1.86951C4.64508 2.42023 5.07928 2.85443 5.63 3.05822L7.49951 3.75L5.63 4.44178C5.07928 4.64557 4.64508 5.07977 4.44129 5.63049L3.74951 7.5L3.05773 5.63049C2.85395 5.07977 2.41974 4.64557 1.86902 4.44178L-0.000488281 3.75L1.86902 3.05822C2.41974 2.85443 2.85395 2.42023 3.05773 1.86951L3.74951 0Z"/>
<path d="M15.7394 13.0085C15.7398 12.5928 16.1807 12.364 16.4894 12.5856L16.549 12.6364L19.8459 15.8688L19.882 15.9079C20.0388 16.0983 20.0389 16.3835 19.882 16.5739L19.8459 16.6129L16.549 19.8454C16.2603 20.1281 15.8026 19.9429 15.7462 19.5534L15.7394 19.4723V18.0036C15.3969 18.0434 14.842 18.1467 14.1701 18.4088L13.9806 18.486C13.3261 18.7625 12.8321 19.2517 12.5177 19.6422L12.3937 19.8024C12.2294 20.0251 11.9758 20.0278 11.8195 19.9645C11.6615 19.9004 11.4606 19.7067 11.506 19.4059L11.5695 19.0172C11.6441 18.5909 11.7533 18.0622 11.9044 17.5426C12.101 16.8671 12.3879 16.1355 12.8107 15.6891L12.924 15.5749C13.9095 14.6183 15.1182 14.4812 15.7394 14.4811V13.0085Z"/>
</svg>

<svg xmlns="http://www.w3.org/2000/svg" viewBox="0 0 20 20"><path d="m14.269 9.141-8.193 8.194H3.297v-2.776l8.193-8.198zM14.162 4a.74.74 0 0 1 .521.218l1.735 1.729a.735.735 0 0 1 0 1.044l-1.356 1.358-2.78-2.78 1.357-1.351A.74.74 0 0 1 14.162 4M3.75 0l.691 1.87c.204.55.638.984 1.189 1.188l1.87.692-1.87.692c-.55.204-.985.638-1.189 1.188L3.75 7.5l-.692-1.87a2.01 2.01 0 0 0-1.189-1.188l-1.87-.692 1.87-.692c.55-.204.985-.638 1.189-1.188zm11.99 13.009c0-.416.44-.645.75-.423l.059.05 3.297 3.233.036.039a.53.53 0 0 1 0 .666l-.036.039-3.297 3.232c-.289.283-.746.098-.803-.292l-.007-.08v-1.47c-.342.04-.897.144-1.569.406l-.19.077c-.654.276-1.148.766-1.462 1.156l-.124.16a.48.48 0 0 1-.575.163.516.516 0 0 1-.313-.56l.063-.388c.075-.426.184-.955.335-1.474.197-.676.484-1.407.907-1.854l.113-.114c.986-.957 2.194-1.094 2.815-1.094z"/></svg>
